picto/tracks-73-it-small.svg

<svg class="color-immutable" width="24" height="24" viewBox="0 0 24 24" fill="none" xmlns="http://www.w3.org/2000/svg"><path d="M0 22.5V1.5C0 0.675 0.675 0 1.5 0H22.5C23.325 0 24 0.675 24 1.5V22.5C24 23.325 23.325 24 22.5 24H1.5C0.675 24 0 23.325 0 22.5Z" fill="#2D327D"/><path d="M10.996 9.758V11.665C10.934 11.732 10.752 11.939 10.45 12.288C10.03 12.77 9.61201 13.376 9.19601 14.107C8.78101 14.838 8.45801 15.539 8.22701 16.21C7.74001 17.61 7.44501 19.207 7.34301 21.001H5.02101C5.03601 20.155 5.18401 19.217 5.46301 18.186C5.74201 17.155 6.12801 16.125 6.62001 15.094C7.32201 13.638 8.03501 12.554 8.75801 11.841H3.45201V9.758H10.996Z" fill="white"/><path d="M12.961 13.319C12.987 12.396 13.215 11.622 13.645 10.996C14.342 9.991 15.391 9.489 16.79 9.489C17.867 9.489 18.736 9.763 19.397 10.312C20.11 10.907 20.466 11.676 20.466 12.619C20.466 13.183 20.326 13.669 20.047 14.076C19.767 14.484 19.389 14.759 18.913 14.903C19.518 15.041 19.996 15.349 20.347 15.826C20.698 16.303 20.874 16.88 20.874 17.556C20.874 18.669 20.464 19.579 19.644 20.286C18.885 20.942 17.926 21.27 16.768 21.27C15.512 21.27 14.516 20.909 13.78 20.186C13.044 19.463 12.676 18.486 12.676 17.256C12.676 17.23 12.676 17.182 12.676 17.11H14.837C14.837 17.802 15.001 18.337 15.329 18.713C15.657 19.09 16.121 19.278 16.721 19.278C17.321 19.278 17.782 19.101 18.105 18.747C18.402 18.414 18.551 18.016 18.551 17.555C18.551 17.001 18.361 16.563 17.982 16.24C17.669 15.973 17.187 15.84 16.536 15.84C16.351 15.84 16.169 15.85 15.99 15.871V14.218C16.123 14.228 16.251 14.233 16.375 14.233C17.667 14.233 18.313 13.754 18.313 12.795C18.313 12.375 18.172 12.035 17.89 11.776C17.608 11.517 17.236 11.388 16.775 11.388C16.247 11.388 15.839 11.552 15.552 11.88C15.265 12.208 15.111 12.687 15.091 13.318H12.961V13.319Z" fill="white"/><path d="M3.00101 3H4.01301C4.23001 3 4.39201 3.027 4.49901 3.082C4.59901 3.133 4.67501 3.208 4.72701 3.305C4.77001 3.387 4.79101 3.474 4.79101 3.566C4.79101 3.669 4.76501 3.76 4.71301 3.84C4.66001 3.92 4.58401 3.983 4.48501 4.029C4.57101 4.058 4.63601 4.088 4.67901 4.12C4.82501 4.227 4.89701 4.382 4.89701 4.586C4.89701 4.707 4.87001 4.816 4.81601 4.912C4.76201 5.008 4.68501 5.086 4.58501 5.144C4.46601 5.214 4.30601 5.249 4.10401 5.249H3.00101V3ZM3.49101 3.386V3.91H3.94001C4.04501 3.91 4.12101 3.898 4.17101 3.873C4.26201 3.829 4.30801 3.753 4.30801 3.645C4.30801 3.554 4.27901 3.488 4.22201 3.447C4.16501 3.407 4.07101 3.386 3.94001 3.386H3.49101ZM3.49101 4.246V4.863H3.98801C4.13101 4.863 4.23101 4.843 4.28801 4.803C4.36401 4.749 4.40201 4.666 4.40201 4.555C4.40201 4.423 4.35101 4.332 4.24801 4.284C4.19201 4.259 4.09701 4.246 3.96401 4.246H3.49101Z" fill="white"/><path d="M5.63701 3V3.401H5.19101V3H5.63701ZM5.63701 3.572V5.249H5.19101V3.572H5.63701Z" fill="white"/><path d="M6.417 3.574V3.809C6.469 3.737 6.518 3.684 6.563 3.651C6.674 3.565 6.807 3.522 6.963 3.522C7.1 3.522 7.217 3.557 7.312 3.627C7.388 3.682 7.441 3.752 7.471 3.837C7.501 3.922 7.516 4.041 7.516 4.195V5.25H7.072V4.287C7.072 4.179 7.063 4.1 7.044 4.05C7.027 4.006 6.997 3.972 6.955 3.946C6.907 3.918 6.852 3.904 6.791 3.904C6.723 3.904 6.662 3.92 6.606 3.953C6.551 3.986 6.51 4.031 6.483 4.087C6.453 4.151 6.438 4.25 6.438 4.384V5.248H5.992V3.574H6.417Z" fill="white"/><path d="M9.37901 5.249H8.92401C8.90401 5.183 8.89501 5.127 8.89501 5.081C8.75601 5.224 8.57601 5.295 8.35501 5.295C8.18301 5.295 8.04801 5.255 7.95201 5.175C7.84101 5.083 7.78601 4.954 7.78601 4.789C7.78601 4.579 7.88101 4.433 8.07101 4.352C8.14801 4.319 8.28901 4.289 8.49601 4.261C8.67301 4.237 8.78401 4.215 8.82701 4.193C8.87001 4.171 8.89201 4.126 8.89201 4.06C8.89201 3.913 8.79501 3.84 8.60001 3.84C8.49601 3.84 8.42101 3.858 8.37301 3.895C8.32501 3.932 8.29301 3.996 8.27801 4.087H7.85601C7.87001 3.901 7.94001 3.76 8.06701 3.665C8.19401 3.57 8.37501 3.523 8.61001 3.523C8.86901 3.523 9.06101 3.576 9.18501 3.681C9.24301 3.731 9.28101 3.783 9.30001 3.84C9.31901 3.896 9.32801 3.986 9.32801 4.108C9.32801 4.134 9.32601 4.246 9.32301 4.446C9.32201 4.648 9.32101 4.764 9.32101 4.793C9.32101 4.915 9.32501 5.004 9.33201 5.061C9.33901 5.119 9.35501 5.181 9.37901 5.249ZM8.88901 4.438C8.83101 4.474 8.72601 4.502 8.57501 4.523C8.46801 4.539 8.39101 4.56 8.34401 4.586C8.27701 4.622 8.24401 4.683 8.24401 4.769C8.24401 4.839 8.26601 4.893 8.31001 4.932C8.35401 4.971 8.41601 4.99 8.49501 4.99C8.62601 4.99 8.73201 4.944 8.81301 4.852C8.84201 4.82 8.86201 4.787 8.87201 4.753C8.88301 4.719 8.88801 4.673 8.88801 4.617V4.438H8.88901Z" fill="white"/><path d="M10.716 3.541V3.973C10.644 3.96 10.586 3.953 10.542 3.953C10.376 3.953 10.254 4.023 10.176 4.162C10.132 4.24 10.11 4.37 10.11 4.553V5.248H9.664V3.568H10.089V3.874C10.21 3.646 10.386 3.533 10.617 3.533C10.644 3.534 10.678 3.536 10.716 3.541Z" fill="white"/><path d="M11.373 3V3.401H10.927V3H11.373ZM11.373 3.572V5.249H10.927V3.572H11.373Z" fill="white"/><path d="M12.534 3.523C12.778 3.523 12.977 3.604 13.132 3.766C13.285 3.926 13.361 4.139 13.361 4.406C13.361 4.682 13.279 4.902 13.116 5.066C12.963 5.219 12.764 5.295 12.519 5.295C12.258 5.295 12.049 5.21 11.895 5.04C11.747 4.878 11.674 4.668 11.674 4.409C11.674 4.155 11.746 3.948 11.889 3.789C12.048 3.612 12.263 3.523 12.534 3.523ZM12.511 3.871C12.393 3.871 12.299 3.919 12.23 4.014C12.159 4.11 12.124 4.242 12.124 4.409C12.124 4.582 12.159 4.715 12.229 4.807C12.301 4.9 12.399 4.947 12.523 4.947C12.639 4.947 12.731 4.904 12.798 4.819C12.875 4.725 12.913 4.588 12.913 4.408C12.913 4.24 12.879 4.109 12.811 4.016C12.74 3.919 12.64 3.871 12.511 3.871Z" fill="white"/></svg>

<svg class="color-immutable" width="24" height="24" viewBox="0 0 24 24" fill="none" xmlns="http://www.w3.org/2000/svg"><g clip-path="url(#a)"><path d="M0 22.5v-21C0 .675.675 0 1.5 0h21c.825 0 1.5.675 1.5 1.5v21c0 .825-.675 1.5-1.5 1.5h-21C.675 24 0 23.325 0 22.5Z" fill="#2D327D"/><path d="M10.996 9.758v1.907c-.062.067-.244.274-.546.623-.42.482-.838 1.088-1.254 1.819a12.59 12.59 0 0 0-.969 2.103c-.487 1.4-.782 2.997-.884 4.791H5.021c.015-.846.163-1.784.442-2.815a18.244 18.244 0 0 1 1.157-3.092c.702-1.456 1.415-2.54 2.138-3.253H3.452V9.758h7.544ZM12.961 13.319c.026-.923.254-1.697.684-2.323.697-1.005 1.746-1.507 3.145-1.507 1.077 0 1.946.274 2.607.823.713.595 1.069 1.364 1.069 2.307 0 .564-.14 1.05-.419 1.457-.28.408-.658.683-1.134.827a2.373 2.373 0 0 1 1.434.923c.351.477.527 1.054.527 1.73 0 1.113-.41 2.023-1.23 2.73-.759.656-1.718.984-2.876.984-1.256 0-2.252-.361-2.988-1.084-.736-.723-1.104-1.7-1.104-2.93v-.146h2.161c0 .692.164 1.227.492 1.603.328.377.792.565 1.392.565.6 0 1.061-.177 1.384-.531.297-.333.446-.731.446-1.192 0-.554-.19-.992-.569-1.315-.313-.267-.795-.4-1.446-.4-.185 0-.367.01-.546.031v-1.653c.133.01.261.015.385.015 1.292 0 1.938-.479 1.938-1.438 0-.42-.141-.76-.423-1.019-.282-.259-.654-.388-1.115-.388-.528 0-.936.164-1.223.492-.287.328-.441.807-.461 1.438h-2.13v.001ZM3.001 3h1.012c.217 0 .379.027.486.082.1.051.176.126.228.223a.554.554 0 0 1 .064.261.49.49 0 0 1-.306.463.721.721 0 0 1 .194.091c.146.107.218.262.218.466 0 .121-.027.23-.081.326a.612.612 0 0 1-.231.232c-.119.07-.279.105-.481.105H3.001V3Zm.49.386v.524h.449a.539.539 0 0 0 .231-.037c.091-.044.137-.12.137-.228 0-.091-.029-.157-.086-.198-.057-.04-.151-.061-.282-.061h-.449Zm0 .86v.617h.497c.143 0 .243-.02.3-.06.076-.054.114-.137.114-.248 0-.132-.051-.223-.154-.271a.76.76 0 0 0-.284-.038h-.473ZM5.637 3v.401h-.446V3h.446Zm0 .572v1.677h-.446V3.572h.446ZM6.417 3.574v.235a.633.633 0 0 1 .546-.287c.137 0 .254.035.349.105a.432.432 0 0 1 .159.21c.03.085.045.204.045.358V5.25h-.444v-.963a.722.722 0 0 0-.028-.237.21.21 0 0 0-.089-.104.356.356 0 0 0-.349.007.312.312 0 0 0-.123.134.738.738 0 0 0-.045.297v.864h-.446V3.574h.425ZM9.379 5.249h-.455a.591.591 0 0 1-.029-.168.72.72 0 0 1-.54.214c-.172 0-.307-.04-.403-.12a.474.474 0 0 1-.166-.386c0-.21.095-.356.285-.437.077-.033.218-.063.425-.091.177-.024.288-.046.331-.068.043-.022.065-.067.065-.133 0-.147-.097-.22-.292-.22-.104 0-.179.018-.227.055-.048.037-.08.101-.095.192h-.422a.549.549 0 0 1 .211-.422c.127-.095.308-.142.543-.142.259 0 .451.053.575.158.058.05.096.102.115.159a.915.915 0 0 1 .028.268l-.005.338-.002.347c0 .122.004.211.011.268a.89.89 0 0 0 .047.188Zm-.49-.811a.882.882 0 0 1-.314.085.734.734 0 0 0-.231.063c-.067.036-.1.097-.1.183 0 .07.022.124.066.163a.27.27 0 0 0 .185.058.403.403 0 0 0 .318-.138.258.258 0 0 0 .059-.099.46.46 0 0 0 .016-.136v-.179h.001ZM10.716 3.541v.432a1.038 1.038 0 0 0-.174-.02.391.391 0 0 0-.366.209c-.044.078-.066.208-.066.391v.695h-.446v-1.68h.425v.306c.121-.228.297-.341.528-.341.027.001.061.003.099.008ZM11.373 3v.401h-.446V3h.446Zm0 .572v1.677h-.446V3.572h.446ZM12.534 3.523a.79.79 0 0 1 .598.243c.153.16.229.373.229.64 0 .276-.082.496-.245.66a.807.807 0 0 1-.597.229c-.261 0-.47-.085-.624-.255-.148-.162-.221-.372-.221-.631 0-.254.072-.461.215-.62.159-.177.374-.266.645-.266Zm-.023.348a.33.33 0 0 0-.281.143.652.652 0 0 0-.106.395c0 .173.035.306.105.398.072.093.17.14.294.14a.332.332 0 0 0 .275-.128c.077-.094.115-.231.115-.411 0-.168-.034-.299-.102-.392a.35.35 0 0 0-.3-.145Z" fill="#fff"/></g><defs><clipPath id="a"><path fill="#fff" d="M0 0h24v24H0z"/></clipPath></defs></svg>
